static/big0_mark.svg

<svg xmlns="http://www.w3.org/2000/svg" width="70" height="120" viewBox="0 0 70 120"><path fill="#0d9488" d="M32.76 18.78q10.3 0 16.38 3.64t8.74 11.81q2.65 8.16 2.65 21.89t-2.65 21.89q-2.66 8.17-8.74 11.81t-16.38 3.64-16.38-3.64T7.7 78.01 5.1 56.12t2.6-21.89 8.68-11.81 16.38-3.64m-.1 12.48q-3.44 0-5.72 1.15-2.29 1.14-3.64 3.85-1.36 2.7-1.93 7.54t-.57 12.32q0 7.38.57 12.27t1.93 7.59 3.64 3.85 5.72 1.15q3.53 0 5.87-1.15 2.34-1.14 3.75-3.85 1.4-2.7 1.97-7.59t.57-12.27q0-7.49-.57-12.32t-1.97-7.54-3.75-3.85-5.87-1.15"/><path stroke="#0d9488" stroke-linecap="round" stroke-width="9" d="M53 24 14 88"/><rect width="36.09" height="5" x="14.77" y="104" fill="#0d9488" rx="2"/></svg>

<svg xmlns="http://www.w3.org/2000/svg" viewBox="0 0 70 120" width="70" height="120">
<path d="M32.76 18.78L32.76 18.78Q43.06 18.78 49.14 22.42Q55.22 26.06 57.88 34.23Q60.53 42.39 60.53 56.12L60.53 56.12Q60.53 69.85 57.88 78.01Q55.22 86.18 49.14 89.82Q43.06 93.46 32.76 93.46L32.76 93.46Q22.46 93.46 16.38 89.82Q10.30 86.18 7.70 78.01Q5.10 69.85 5.10 56.12L5.10 56.12Q5.10 42.39 7.70 34.23Q10.30 26.06 16.38 22.42Q22.46 18.78 32.76 18.78ZM32.66 31.26L32.66 31.26Q29.22 31.26 26.94 32.41Q24.65 33.55 23.30 36.26Q21.94 38.96 21.37 43.80Q20.80 48.63 20.80 56.12L20.80 56.12Q20.80 63.50 21.37 68.39Q21.94 73.28 23.30 75.98Q24.65 78.69 26.94 79.83Q29.22 80.98 32.66 80.98L32.66 80.98Q36.19 80.98 38.53 79.83Q40.87 78.69 42.28 75.98Q43.68 73.28 44.25 68.39Q44.82 63.50 44.82 56.12L44.82 56.12Q44.82 48.63 44.25 43.80Q43.68 38.96 42.28 36.26Q40.87 33.55 38.53 32.41Q36.19 31.26 32.66 31.26Z" fill="#0D9488"></path>

<line x1="53" y1="24" x2="14" y2="88" stroke="#0D9488" stroke-width="9" stroke-linecap="round"></line>
<rect x="14.77" y="104" width="36.09" height="5" rx="2" fill="#0D9488"></rect>
</svg>
